public/assets/imgs/pinterest-64.svg

<svg fill="none" height="64" viewBox="0 0 51 64" width="51" xmlns="http://www.w3.org/2000/svg"><path d="m10.7911 49.7301c-.7383 3.0102-.1656 10.7675.213 14.2699 2.6126-2.0445 5.5376-7.7148 6.6735-10.2944l2.9817-11.0751c1.2306 1.7039 4.9128 4.9838 9.7973 4.4727 15.4483-1.4199 19.4997-16.3049 19.5944-23.5699.9229-9.9395-8.0224-24.325278-25.203-23.4992553-22.53329 1.0833753-24.848 18.8135553-24.848 23.9251553s2.41381 10.2942 4.82761 12.708c2.41381 2.4138 3.54972 2.4138 3.83369 2.4138.28398 0 .56796-.355 1.06492-2.7688.68158-2.3854.61528-3.171.49698-3.2657-1.13593-1.0886-3.35095-4.5152-3.12377-9.5132 1.06491-13.205 11.00407-16.61271 17.74857-16.61271s16.2577 3.76271 16.2577 15.90271-6.3895 17.8906-12.211 17.8906c-4.6572 0-5.9635-3.6444-6.0345-5.4666 0-2.4138 3.5497-11.5721 3.4077-14.2698l-.0013-.0255c-.0795-1.5128-.3083-5.8671-4.8263-5.8671-4.5437 0-7.0285 5.1116-7.0995 8.4484-.0709 3.3367.5207 5.9161 1.136 6.9574-1.2543 5.1589-3.9473 16.2293-4.6857 19.2394z" fill="#000"/></svg>

<svg width="51" height="64" viewBox="0 0 51 64" fill="none" xmlns="http://www.w3.org/2000/svg">
<path d="M10.7911 49.7301C10.0528 52.7403 10.6255 60.4976 11.0041 64C13.6167 61.9555 16.5417 56.2852 17.6776 53.7056L20.6593 42.6305C21.8899 44.3344 25.5721 47.6143 30.4566 47.1032C45.9049 45.6833 49.9563 30.7983 50.051 23.5333C50.9739 13.5938 42.0286 -0.791978 24.848 0.0340447C2.31471 1.11742 0 18.8476 0 23.9592C0 29.0708 2.41381 34.2534 4.82761 36.6672C7.24142 39.081 8.37733 39.081 8.6613 39.081C8.94528 39.081 9.22926 38.726 9.72622 36.3122C10.4078 33.9268 10.3415 33.1412 10.2232 33.0465C9.08727 31.9579 6.87225 28.5313 7.09943 23.5333C8.16434 10.3283 18.1035 6.92059 24.848 6.92059C31.5925 6.92059 41.1057 10.6833 41.1057 22.8233C41.1057 34.9633 34.7162 40.7139 28.8947 40.7139C24.2375 40.7139 22.9312 37.0695 22.8602 35.2473C22.8602 32.8335 26.4099 23.6752 26.2679 20.9775L26.2666 20.952C26.1871 19.4392 25.9583 15.0849 21.4403 15.0849C16.8966 15.0849 14.4118 20.1965 14.3408 23.5333C14.2699 26.87 14.8615 29.4494 15.4768 30.4907C14.2225 35.6496 11.5295 46.72 10.7911 49.7301Z" fill="black"/>
</svg>
